<?xml version="1.0" encoding="UTF-8"?>
<map version="1.10" tiledversion="1.12.2-2-geb83ddb9" orientation="orthogonal" renderorder="right-down" width="30" height="20" tilewidth="16" tileheight="16" infinite="0" nextlayerid="5" nextobjectid="2">
 <editorsettings>
  <export target="alley.json" format="json"/>
 </editorsettings>
 <tileset firstgid="1" source="../graphics/city_tileset.tsj"/>
 <tileset firstgid="1037" source="../graphics/rpg_tileset.tsj"/>
 <layer id="1" name="Floor" width="30" height="20">
  <data encoding="csv">
711,711,711,711,711,711,711,711,711,711,711,711,711,711,711,711,711,711,711,0,0,0,0,0,0,0,0,0,0,0,
711,711,711,711,711,711,711,711,711,711,711,711,711,711,711,711,711,711,711,0,0,0,0,0,0,0,0,0,0,0,
711,711,711,711,711,711,711,711,711,711,711,711,711,711,711,711,711,711,711,0,0,0,0,0,0,0,0,0,0,0,
711,711,711,711,711,711,711,711,711,711,711,711,711,711,711,711,711,711,711,0,0,0,0,0,0,0,0,0,0,0,
711,711,711,711,711,711,711,711,711,711,711,711,711,711,711,711,711,711,711,711,711,711,711,711,0,0,0,0,0,0,
711,711,711,711,711,711,711,711,711,711,711,711,711,711,711,711,711,711,711,926,927,927,927,927,927,927,927,927,927,928,
0,0,0,0,0,0,0,0,0,0,0,711,711,711,711,711,711,711,711,963,964,964,964,964,964,964,964,964,964,965,
0,0,0,0,0,0,0,0,0,0,0,711,711,711,711,711,711,711,711,963,174,964,964,964,964,964,964,964,964,965,
0,0,0,0,0,0,0,0,0,0,0,711,711,711,711,711,711,711,711,963,964,964,964,175,176,176,177,964,964,965,
0,0,0,0,0,0,0,0,0,0,0,711,711,711,711,711,711,711,711,963,964,964,964,212,174,174,214,964,964,965,
0,0,0,0,0,0,0,0,0,0,0,711,711,711,711,711,711,711,711,963,964,964,964,249,250,250,251,964,964,965,
0,0,0,0,0,0,0,0,0,0,0,711,711,711,711,711,711,711,711,963,964,174,964,964,964,964,964,964,174,965,
0,0,0,0,0,0,0,0,0,0,0,711,711,711,711,711,711,711,711,963,964,964,964,964,964,964,964,964,964,965,
0,0,0,0,0,0,0,0,0,0,0,711,711,711,711,711,711,711,711,1000,1001,1001,1001,1001,1001,1001,1001,1001,1001,1002,
907,907,907,907,907,907,907,907,907,907,907,907,907,907,907,907,907,907,826,907,907,907,907,907,907,907,907,907,907,907,
715,715,715,715,715,715,715,715,715,902,715,715,715,715,715,715,715,715,826,715,715,715,715,715,715,715,715,715,871,715,
714,714,714,714,714,714,714,714,714,714,714,714,714,714,714,714,714,714,826,714,714,714,714,714,714,714,714,714,714,714,
751,751,751,751,751,751,751,751,751,751,751,751,751,751,751,751,751,751,826,751,751,751,751,751,751,751,751,751,751,751,
715,715,715,715,715,715,715,715,715,902,715,715,715,715,715,715,715,715,826,715,715,715,715,715,715,715,715,715,908,715,
715,715,715,715,715,715,715,715,715,715,715,715,715,715,715,715,715,715,826,715,715,715,715,715,715,715,715,715,715,715
</data>
 </layer>
 <layer id="2" name="Walls" width="30" height="20">
  <data encoding="csv">
232,233,233,233,233,233,233,233,233,233,234,0,0,0,0,0,0,0,0,38,40,40,40,40,40,40,40,40,40,39,
306,307,307,307,307,307,307,307,307,307,308,0,0,0,0,0,0,0,0,335,336,336,336,336,336,336,336,336,336,337,
0,0,0,0,0,0,0,0,0,0,0,0,0,0,0,0,0,0,0,187,188,188,188,188,188,188,188,843,188,189,
0,0,0,0,0,0,0,0,0,0,0,0,0,0,0,0,0,0,0,224,225,225,225,225,225,225,225,225,225,226,
0,0,0,0,0,0,0,0,0,0,0,0,0,0,0,0,0,0,0,298,299,299,299,299,299,299,299,299,299,300,
0,0,0,0,0,0,0,0,0,0,0,0,0,0,0,0,0,0,0,0,0,573,574,0,0,0,0,0,0,0,
1,3,3,3,3,3,3,3,3,3,2,0,0,0,0,0,0,0,0,0,0,0,0,0,0,0,0,0,0,0,
4,7,7,7,7,7,7,7,7,7,41,0,0,0,0,0,0,0,0,0,0,0,0,0,0,0,0,0,0,535,
4,7,7,7,7,7,7,7,7,7,41,0,0,0,0,0,0,0,0,0,0,0,0,0,110,111,0,0,0,572,
38,40,40,40,40,40,40,40,40,40,39,534,0,0,0,0,0,0,0,0,0,0,0,0,253,253,0,0,0,609,
335,336,336,336,336,336,336,336,336,336,337,0,0,0,0,0,0,0,0,0,0,0,0,0,0,0,0,0,0,0,
187,188,188,188,188,188,188,188,188,188,189,0,0,0,0,0,0,0,0,0,0,0,0,0,0,0,0,0,0,0,
224,225,225,225,225,225,225,225,225,225,226,0,0,0,0,0,0,0,0,0,0,0,0,0,0,0,0,0,0,0,
298,299,299,299,299,299,299,299,299,299,300,0,0,0,0,0,0,0,0,540,541,541,578,541,541,578,541,541,541,616,
0,0,0,0,0,0,0,0,0,0,0,0,0,0,0,0,0,0,0,0,0,0,0,0,0,0,0,0,0,0,
0,0,0,0,0,0,0,0,0,0,0,0,0,0,0,0,0,0,0,0,0,0,0,0,0,0,0,0,0,0,
0,0,0,0,0,0,0,0,0,0,0,0,0,0,0,0,0,0,0,0,0,0,0,0,0,0,0,0,0,0,
0,775,776,777,0,0,0,0,0,0,0,0,0,0,0,0,0,0,0,0,0,0,0,0,0,0,0,0,0,0,
0,812,813,814,0,0,0,0,0,0,0,0,0,0,0,0,0,0,0,0,0,0,0,0,0,0,0,0,0,0,
0,0,0,0,0,0,0,0,0,0,0,0,0,0,0,0,0,0,0,0,0,0,0,0,0,0,0,0,0,0
</data>
 </layer>
 <layer id="3" name="Decorations" width="30" height="20">
  <data encoding="csv">
0,0,0,0,0,0,0,0,0,0,0,0,0,0,0,0,0,0,0,0,0,0,0,0,0,0,0,0,0,0,
0,0,0,0,0,0,0,0,0,0,0,601,0,0,0,0,0,0,600,0,0,0,0,0,0,0,0,0,0,0,
0,0,0,0,0,0,0,0,0,0,0,638,0,0,0,0,0,0,637,0,0,768,0,0,768,0,0,841,0,0,
0,0,0,497,0,0,0,0,0,0,0,675,0,0,0,0,495,570,674,0,0,0,0,0,0,0,0,0,0,0,
0,0,247,0,495,570,0,247,0,0,0,0,0,0,0,0,0,0,494,0,0,0,0,0,983,0,402,402,0,402,
0,0,0,0,0,0,494,0,0,0,0,0,0,0,0,0,0,0,0,0,513,0,0,0,0,0,439,439,0,439,
0,0,0,0,0,0,0,0,0,0,0,601,0,0,0,0,0,0,0,0,0,0,0,0,0,0,0,0,0,0,
0,0,0,0,0,0,0,0,0,0,0,638,0,0,0,0,0,0,0,0,0,0,0,0,0,0,0,0,0,0,
0,0,0,0,0,0,0,0,0,0,0,675,0,0,0,0,0,0,0,0,0,0,0,0,0,0,0,0,0,0,
0,0,0,0,0,0,0,0,0,0,0,0,0,0,0,0,0,0,0,0,0,0,0,0,0,0,0,0,0,0,
0,0,0,0,0,0,0,0,0,0,0,486,487,488,486,487,488,486,488,492,0,0,0,0,0,0,0,0,0,0,
0,658,0,0,0,658,0,0,0,658,0,601,0,0,0,0,0,0,0,638,0,0,0,0,0,0,0,0,0,0,
0,0,0,0,0,0,0,0,0,0,0,638,0,0,0,0,0,0,0,638,0,0,0,0,0,0,0,0,0,0,
0,0,0,0,0,0,0,0,987,0,0,675,0,0,0,0,0,0,0,0,0,0,0,0,0,0,0,0,0,0,
0,0,0,0,0,0,0,0,0,0,0,0,0,0,0,0,0,0,0,0,0,0,0,0,0,0,0,0,0,0,
0,0,0,0,0,0,0,0,0,0,0,0,0,0,0,0,0,0,0,0,0,0,0,0,0,0,0,0,0,0,
0,0,0,0,0,0,0,0,0,0,0,0,0,0,0,0,0,0,0,0,0,0,0,0,0,0,0,0,0,0,
0,0,0,0,0,0,0,0,0,0,0,0,0,0,0,0,0,0,0,0,0,0,0,0,0,0,0,0,0,0,
0,0,0,0,0,0,0,0,0,0,0,0,0,0,0,0,0,0,0,0,0,0,0,0,0,0,0,0,0,0,
0,0,0,0,0,0,0,0,0,0,0,0,0,0,0,0,0,0,0,0,0,0,0,0,0,0,0,0,0,0
</data>
 </layer>
 <objectgroup id="4" name="Doors">
  <object id="1" x="295.417" y="308.91"/>
 </objectgroup>
</map>
