<?xml version="1.0" encoding="UTF-8"?>
<map version="1.10" tiledversion="1.12.2-2-geb83ddb9" orientation="orthogonal" renderorder="right-down" width="30" height="20" tilewidth="16" tileheight="16" infinite="0" nextlayerid="6" nextobjectid="2">
 <tileset firstgid="1" source="../graphics/rpg_tileset.tsx"/>
 <tileset firstgid="1768" source="../graphics/indoor_tileset.tsx"/>
 <tileset firstgid="2254" source="../graphics/city_tileset.tsx"/>
 <layer id="1" name="Floor" width="30" height="20">
  <data encoding="csv">
1432,1433,1433,1433,1433,1433,1433,1433,1433,1433,1433,1433,1433,1433,1433,1433,1433,1433,1433,1433,1433,1433,1433,1433,1433,1433,1433,1433,1433,1434,
1489,1490,1490,1490,1490,1490,1490,1490,1490,1490,1490,1490,1490,1490,1490,1490,1490,1490,1490,1490,1490,1490,1490,1490,1490,1490,1490,1490,1490,1491,
1489,1490,1490,1490,1490,1490,1490,1490,1490,1490,1490,1490,1490,1490,1490,1490,1490,1490,1490,1490,1490,1490,1490,1490,1490,1490,1490,1490,1490,1491,
1489,1432,1433,1433,1433,1433,1433,1433,1433,1433,1433,1433,1433,1433,1433,1433,1433,1433,1433,1433,1433,1433,1433,1433,1433,1433,1433,1433,1434,1491,
1489,1490,1490,1490,1490,1490,1490,1490,1490,1490,1490,1490,1490,1490,1490,1490,1490,1490,1490,1490,1490,1490,1490,1490,1490,1490,1490,1490,1491,1491,
1489,1490,1490,1490,1490,1490,1490,1490,1490,1490,1490,1490,1490,1490,1490,1490,1490,1490,1490,1490,1490,1490,1490,1490,1490,1490,1490,1490,1491,1491,
1489,1490,1490,1490,1490,1490,1490,1490,1490,1490,1490,1490,1490,1490,1490,1490,1490,1490,1490,1490,1490,1490,1490,1490,1490,1490,1490,1490,1491,1491,
1489,1547,1547,1547,1547,1547,1547,1547,1547,1490,1490,1490,1490,1490,1490,1490,1490,1490,1490,1490,1490,1547,1547,1547,1547,1547,1547,1547,1548,1491,
1489,1490,1490,1490,1490,1490,1490,1490,1490,1490,1490,1490,888,888,1490,1490,1490,1490,1490,1490,1490,1490,1490,1490,1490,1490,1490,1490,1490,1491,
1489,1490,1490,1490,1490,1490,1490,1490,1490,1490,1432,1433,1433,1433,1433,1433,1433,1433,1433,1434,1490,1490,1490,1490,1490,1490,1490,1490,1490,1491,
1489,1490,1490,1490,888,888,1490,1490,1490,1490,1489,1490,1490,1490,1490,1490,1490,1490,1490,1491,1490,1490,1490,1490,1490,1490,1490,1490,1490,1491,
1489,1432,1433,1433,1433,1433,1433,1433,1434,1490,1489,1490,1490,1490,1490,1490,1490,1490,1490,1491,1490,1432,1433,1433,1433,1433,1433,1433,1491,1491,
1489,1490,1490,1490,1490,1490,1490,1490,1491,1490,1489,1490,1490,1490,1490,1490,1490,1490,1490,1491,1490,1489,1490,1490,1490,1490,1490,1490,1491,1491,
1489,1490,1490,1490,1490,1490,1490,1490,1491,1490,1489,1490,1490,1490,1490,1490,1490,1490,1490,1491,1490,1489,1490,1490,1490,1490,1490,1490,1491,1491,
1489,1490,1490,1490,1490,1490,1490,1490,1491,1490,1489,1490,1490,1490,1490,1490,1490,1490,1490,1491,1490,1489,1490,1490,1490,1490,1490,1490,1491,1491,
1489,1490,1490,1490,1490,1490,1490,1490,1491,1490,1489,1490,1490,1490,1490,1490,1490,1490,1490,1491,1490,1489,1490,1490,1490,1490,1490,1490,1491,1491,
1489,1546,1547,1547,1547,1547,1547,1547,1548,1490,1546,1547,1547,1547,1547,1547,1547,1547,1547,1548,1490,1490,1547,1547,1547,1547,1547,1547,1548,1491,
1489,1490,1490,1490,1490,1490,1490,1490,1490,1490,1490,1490,1490,1490,1490,1490,1490,1490,1490,1490,1490,1490,1490,1490,1490,1490,1490,1490,1490,1491,
1489,1490,1490,1490,1490,1490,1490,1490,1490,1490,1490,1490,1490,1490,1490,1490,1490,1490,1490,1490,1490,1490,1490,1490,1490,1490,1490,1490,1490,1491,
1546,1547,1547,1547,1547,1547,1547,1547,1547,1547,1547,1547,1547,1547,1547,1547,1547,1547,1547,1547,1547,1547,1547,1547,1547,1547,1547,1547,1547,1548
</data>
 </layer>
 <layer id="2" name="Walls" width="30" height="20">
  <data encoding="csv">
715,713,713,713,713,713,713,713,713,713,713,713,713,713,713,713,713,713,713,713,713,713,713,713,713,713,713,713,713,716,
771,944,945,945,945,945,945,945,945,945,945,945,945,945,945,945,945,945,945,945,945,945,945,945,945,945,945,945,946,771,
771,887,888,888,888,888,888,888,888,888,888,888,888,888,888,888,888,888,888,888,888,888,888,888,888,888,888,888,889,771,
771,0,0,0,0,0,0,0,0,0,0,0,0,0,0,0,0,0,0,0,0,0,0,0,0,0,0,0,0,771,
771,0,0,0,0,1175,0,0,0,0,0,0,0,0,0,0,0,0,0,0,0,0,0,0,0,2087,0,0,0,771,
771,0,0,0,0,1119,0,0,0,0,0,0,0,0,0,0,0,0,0,0,0,0,0,0,0,1168,0,0,0,771,
771,0,0,0,0,1176,0,0,0,715,713,713,0,0,713,713,713,713,713,713,716,0,0,0,0,1169,0,0,0,771,
771,0,0,0,0,0,0,0,0,771,944,945,0,0,945,945,945,945,945,946,771,0,0,0,0,0,0,0,0,771,
717,713,713,713,0,0,713,713,713,774,887,888,0,0,888,888,888,888,888,889,717,713,713,713,713,713,713,713,713,774,
771,944,945,945,0,0,945,945,946,771,0,0,0,0,0,0,0,0,0,0,771,944,945,945,945,945,945,945,946,771,
771,887,888,888,0,0,888,888,889,771,0,0,0,0,0,0,2131,2234,2134,0,771,887,888,888,888,888,888,888,889,771,
771,0,0,0,0,0,0,0,0,771,0,0,0,0,0,0,2158,0,0,0,0,0,0,0,0,0,0,0,0,771,
771,1773,0,0,0,0,0,0,1773,771,0,0,0,0,0,0,2158,0,0,0,0,0,0,0,0,0,0,0,0,771,
771,1800,0,0,0,0,0,0,1800,771,0,0,0,0,0,0,2158,0,0,0,771,0,1795,1796,1796,1797,0,0,0,771,
771,1800,0,0,0,0,0,0,1800,771,0,0,0,0,0,0,2158,0,0,0,771,0,0,0,0,0,0,0,0,771,
771,1800,0,0,0,0,0,0,1800,771,0,0,0,0,0,0,2158,0,0,0,771,0,0,0,0,0,0,0,0,771,
771,1827,0,0,0,0,0,0,1827,771,0,0,0,0,0,0,2185,0,0,0,771,0,0,0,0,0,0,0,0,771,
772,713,713,713,713,713,713,713,713,718,713,713,713,713,713,713,713,713,713,713,718,713,713,713,713,713,713,713,713,773,
944,945,945,945,945,945,945,945,945,945,945,945,945,945,945,945,945,945,945,945,945,945,945,945,945,945,945,945,945,946,
887,888,888,888,888,888,888,888,888,888,888,888,888,888,888,888,888,888,888,888,888,888,888,888,888,888,888,888,888,889
</data>
 </layer>
 <layer id="3" name="Decorations" width="30" height="20">
  <data encoding="csv">
0,0,0,0,0,0,0,0,0,0,0,0,0,0,0,0,0,0,0,0,0,0,0,0,0,0,0,0,0,0,
0,0,602,0,0,2109,0,0,2135,0,0,602,0,0,2139,2140,0,0,621,0,0,658,0,0,2110,0,0,2135,0,0,
0,0,0,0,0,0,0,0,0,0,0,0,0,0,0,0,0,0,678,0,0,0,0,0,0,0,0,0,0,0,
0,1843,0,0,0,0,0,0,0,0,0,0,0,0,0,0,0,0,0,0,0,0,0,0,0,0,0,0,1871,0,
0,2090,0,0,0,0,0,0,0,0,0,0,0,0,0,0,0,0,0,0,0,0,0,0,0,0,0,0,2091,0,
0,2117,0,0,0,0,0,0,0,0,0,0,0,0,0,0,0,0,0,0,0,0,0,0,0,0,0,0,2118,0,
0,1816,0,0,1811,1812,1813,0,0,0,0,0,713,713,0,0,0,0,0,0,0,0,0,0,1811,1812,1813,0,1871,0,
0,0,0,0,0,0,0,0,0,0,0,2136,945,945,0,2162,2163,2164,0,0,0,0,0,0,0,0,0,0,0,0,
0,0,0,0,0,0,0,0,0,0,0,0,489,490,0,0,0,0,0,0,0,0,0,0,0,0,0,0,0,0,
0,0,2193,0,0,0,0,2166,2167,0,0,0,0,0,0,0,0,0,0,0,0,0,0,0,0,0,0,0,0,0,
0,0,2220,0,491,490,0,0,0,0,2090,0,0,0,0,0,0,0,0,0,0,0,434,435,0,2104,2097,2098,2103,0,
0,0,0,0,0,0,0,0,0,0,2117,0,0,0,0,0,0,0,0,0,771,0,0,0,0,0,0,0,2130,0,
0,0,0,0,0,0,0,0,0,0,0,0,0,0,0,0,1784,0,0,0,771,0,0,0,0,0,0,0,2130,0,
0,1893,0,1641,1642,1642,1643,0,1892,0,0,0,0,0,0,0,0,0,0,0,0,0,0,0,2060,0,0,0,2130,0,
0,0,0,1698,1699,1699,1700,0,0,0,2090,0,0,0,0,0,0,0,0,0,0,0,0,1877,1877,0,0,0,2130,0,
0,1921,0,1755,1756,1756,1757,0,1786,0,2117,0,0,0,0,0,1785,0,0,0,0,0,0,0,0,0,0,1824,2130,0,
0,0,0,0,0,0,0,0,0,0,0,0,0,0,0,0,0,0,0,0,0,1063,0,0,1192,1250,0,0,2157,0,
0,0,0,0,0,0,0,0,0,0,0,0,0,0,0,0,0,0,0,0,0,0,0,0,0,0,0,0,0,0,
0,0,0,0,0,0,0,0,0,0,0,0,2548,2549,0,0,0,0,0,0,0,0,0,0,0,0,0,0,0,0,
0,0,0,0,0,0,0,0,0,0,0,0,377,378,0,0,0,0,0,0,0,0,0,0,0,0,0,0,0,0
</data>
 </layer>
 <layer id="4" name="Decorations2" width="30" height="20">
  <data encoding="csv">
0,0,0,0,0,0,0,0,0,0,0,0,0,0,0,0,0,0,0,0,0,0,0,0,0,0,0,0,0,0,
0,0,0,0,0,0,0,0,0,0,0,0,0,0,0,0,0,0,0,0,0,0,0,0,0,0,0,0,0,0,
0,0,0,0,0,0,0,0,0,0,0,0,0,0,0,0,0,0,0,0,0,0,0,0,0,0,0,0,0,0,
0,0,0,0,0,0,0,0,0,0,0,0,0,0,0,0,0,0,0,0,0,0,0,0,0,0,0,0,0,0,
0,0,0,0,0,0,0,0,0,0,0,0,0,0,0,0,0,0,0,0,0,0,0,0,0,0,0,0,0,0,
0,0,0,0,0,0,0,0,0,0,0,0,0,0,0,0,0,0,0,0,0,0,0,0,0,0,0,0,0,0,
0,0,0,0,0,0,0,0,0,0,0,0,0,0,0,0,0,0,0,0,0,0,0,0,0,0,0,0,0,0,
0,0,0,0,0,0,0,0,0,0,0,0,0,0,0,0,0,0,0,0,0,0,0,0,0,0,0,0,0,0,
0,0,0,0,713,713,0,0,0,0,0,0,0,0,0,0,0,0,0,0,0,0,0,0,0,0,0,0,0,0,
0,0,0,0,945,945,0,0,0,0,0,0,0,0,0,0,0,0,0,0,0,0,0,0,0,0,0,0,0,0,
0,0,0,0,0,0,0,0,0,0,0,0,0,0,0,0,0,0,0,0,0,0,0,0,0,0,0,0,1894,0,
0,0,0,0,0,0,0,0,0,0,0,0,0,0,0,0,0,0,0,0,0,0,0,0,0,0,0,0,0,0,
0,0,0,0,0,0,0,0,0,0,0,0,0,0,0,0,0,0,0,0,0,0,0,0,0,0,0,0,0,0,
0,0,0,0,0,0,0,0,0,0,0,0,0,0,0,0,0,0,0,0,0,0,0,0,0,0,0,0,0,0,
0,0,0,0,0,0,0,0,0,0,0,0,0,0,0,0,0,0,0,0,0,0,0,0,0,0,0,0,0,0,
0,0,0,0,0,0,0,0,0,0,0,0,0,0,0,0,0,0,0,0,0,0,0,0,0,0,0,0,1786,0,
0,0,0,0,0,0,0,0,0,0,0,0,0,0,0,0,0,0,0,0,0,0,0,0,0,0,0,0,0,0,
0,0,0,0,0,0,0,0,0,0,0,0,0,0,0,0,0,0,0,0,0,0,0,0,0,0,0,0,0,0,
0,0,0,0,0,0,0,0,0,0,0,0,0,0,0,0,0,0,0,0,0,0,0,0,0,0,0,0,0,0,
0,0,0,0,0,0,0,0,0,0,0,0,0,0,0,0,0,0,0,0,0,0,0,0,0,0,0,0,0,0
</data>
 </layer>
 <objectgroup id="5" name="Doors">
  <object id="1" x="192.092" y="264.171" width="31.9562" height="14.9129"/>
 </objectgroup>
</map>
