<?xml version="1.0" encoding="UTF-8"?>
<map version="1.10" tiledversion="1.12.2-2-geb83ddb9" orientation="orthogonal" renderorder="right-down" width="30" height="20" tilewidth="16" tileheight="16" infinite="0" nextlayerid="6" nextobjectid="7">
 <tileset firstgid="1" source="../graphics/indoor_tileset.tsx"/>
 <tileset firstgid="487" source="../graphics/rpg_tileset.tsx"/>
 <tileset firstgid="2254" source="../graphics/city_tileset.tsx"/>
 <layer id="1" name="Floor" width="30" height="20">
  <data encoding="csv">
79,79,79,79,132,133,133,133,133,133,133,134,79,79,79,79,79,79,79,79,1002,1003,1003,1003,1003,1003,1003,1003,1003,1004,
79,79,79,79,132,133,133,133,133,133,133,134,79,79,79,79,79,79,79,79,1059,1402,1402,1402,1402,1402,1402,1402,1402,1061,
79,79,79,79,132,133,133,133,133,133,133,134,79,79,79,79,79,79,79,79,1059,1402,1402,1402,1402,1402,1402,1402,1402,1061,
79,79,79,79,132,133,133,133,133,134,25,25,79,79,79,79,79,79,79,79,1059,1402,1402,1402,1402,1402,1402,1402,1402,1061,
79,79,79,79,132,133,133,133,133,134,106,106,79,79,79,79,79,79,79,79,1116,1117,1117,1117,1117,1117,1117,1117,1117,1118,
79,79,79,79,132,133,133,133,133,134,106,106,79,79,79,79,79,79,79,79,79,79,79,79,79,79,79,79,79,79,
79,79,79,79,132,133,133,133,133,134,106,106,79,79,79,79,79,79,79,79,79,79,79,79,79,79,79,79,79,79,
79,79,79,79,132,133,133,133,133,134,106,106,79,79,79,79,79,79,79,79,79,79,79,79,79,79,79,79,79,79,
79,79,79,79,132,133,133,133,133,134,106,106,79,79,79,79,79,79,79,79,79,79,79,79,79,79,79,79,79,79,
79,79,79,79,132,133,133,133,133,134,106,106,79,79,79,79,79,79,79,79,79,79,79,79,79,79,79,79,79,79,
79,79,79,79,79,79,79,79,79,79,79,106,79,79,79,79,79,79,79,79,79,79,79,79,79,79,79,79,79,79,
79,79,79,79,79,79,79,79,79,79,79,79,79,79,79,79,79,79,79,79,79,79,79,79,79,79,79,79,79,79,
79,79,79,79,79,79,79,79,79,79,79,79,79,79,79,79,79,79,79,79,79,79,79,79,79,79,79,79,79,79,
79,79,79,79,79,79,79,79,79,79,79,79,79,79,79,79,79,79,79,79,79,79,79,79,79,79,79,79,79,79,
79,79,79,79,79,79,79,79,79,79,79,79,79,79,79,79,79,79,79,79,79,79,79,79,79,79,79,79,79,79,
79,79,79,79,79,79,79,79,79,79,79,79,79,79,79,79,79,79,79,79,79,79,79,79,79,79,79,79,79,79,
79,79,79,79,79,79,79,79,79,79,79,79,79,79,79,79,79,79,79,79,79,79,79,79,79,79,79,79,79,79,
79,79,79,79,79,79,79,79,79,79,79,79,79,79,79,79,79,79,79,79,79,79,79,79,79,79,79,79,79,79,
79,79,79,79,79,79,79,79,79,79,79,79,79,79,79,79,79,79,79,79,79,79,79,79,79,79,79,79,79,79,
79,79,79,79,79,79,79,79,79,79,79,79,79,79,79,79,79,79,79,79,79,79,79,79,79,79,79,79,79,79
</data>
 </layer>
 <layer id="3" name="Walls" width="30" height="20">
  <data encoding="csv">
1187,1185,1185,1185,1185,1185,1185,1185,1185,1185,1185,1185,1185,1185,1185,1185,1185,1185,1185,1188,0,0,0,0,0,0,0,0,0,0,
1243,1416,1417,1417,1417,1417,1417,1417,1417,1417,1417,1417,1417,1417,1417,1417,1417,1417,1417,1243,0,0,0,0,0,0,0,0,0,0,
1243,1359,1360,1360,1360,1360,1360,1360,1360,1360,1360,1360,1360,1360,1360,1360,1360,1360,1360,1243,0,0,0,0,0,0,0,0,0,0,
1243,0,33,0,0,0,0,0,0,0,0,0,0,0,0,0,0,0,0,1243,0,0,0,0,0,0,0,0,0,0,
1243,0,59,0,0,0,0,0,0,0,0,7,0,0,0,287,288,289,0,1243,0,0,0,0,0,0,0,0,0,0,
1243,0,0,0,0,0,0,0,0,0,0,34,0,0,0,0,0,0,0,1244,1185,1185,1185,1185,1185,1185,1185,1185,1185,1188,
1243,0,6,0,0,0,242,0,0,0,0,0,0,0,0,0,0,0,0,1416,1417,1417,1417,1417,1417,1417,1417,1417,1417,1243,
1243,0,33,0,0,0,269,0,0,0,0,0,0,0,0,287,288,289,0,1359,1360,1360,1360,1360,1360,1360,1360,1360,1360,1243,
1243,0,33,0,0,0,0,0,0,0,0,7,0,0,0,0,0,0,0,0,0,0,0,0,0,0,0,0,0,1243,
1243,0,60,0,0,0,0,0,0,0,0,34,0,0,0,0,0,0,0,0,0,0,0,0,0,0,0,0,0,1243,
1243,0,0,0,0,0,0,0,0,0,0,0,0,0,0,287,288,289,0,0,0,0,0,0,0,0,0,0,0,1243,
1243,0,0,0,0,0,0,0,0,0,0,0,0,0,0,0,0,0,0,0,0,0,0,0,0,0,0,0,0,1243,
1243,0,0,0,0,0,0,0,0,0,0,0,0,0,0,0,0,0,0,287,288,289,0,0,0,287,288,289,0,1243,
1243,0,0,0,0,0,0,0,0,0,0,0,0,0,0,0,0,0,0,0,0,0,0,0,0,0,0,0,0,1243,
1243,0,0,0,0,0,0,0,0,0,0,0,0,0,0,0,0,0,0,0,0,0,0,0,0,0,0,0,0,1243,
1243,0,0,0,0,0,0,0,0,0,0,0,0,0,0,0,0,0,0,287,288,289,0,0,0,287,288,289,0,1243,
1243,0,0,0,0,0,0,0,0,0,0,0,0,0,0,0,0,0,0,0,0,0,0,0,0,0,0,0,0,1243,
1244,1185,1185,1185,1185,1185,1185,1185,1185,1185,1185,1185,1185,1185,1185,1185,1185,1185,1185,1185,1185,1185,1185,1185,1185,1185,1185,1185,1185,1245,
2448,2449,2449,2449,2449,2449,2449,2449,2449,2449,2449,2449,2449,2449,2449,2449,2449,2449,2449,2449,2449,2449,2449,2449,2449,2449,2449,2449,2449,2450,
2559,2560,2560,2560,2560,2560,2560,2560,2560,2560,2560,2560,2560,2560,2560,2560,2560,2560,2560,2560,2560,2560,2560,2560,2560,2560,2560,2560,2560,2561
</data>
 </layer>
 <layer id="4" name="Decoration" width="30" height="20">
  <data encoding="csv">
0,0,0,0,0,0,0,0,0,0,0,0,0,0,0,0,0,0,0,0,0,0,0,0,0,0,0,0,0,0,
0,0,648,0,707,878,823,825,878,707,0,0,648,0,0,648,0,0,648,0,0,0,0,0,0,0,0,0,0,0,
0,0,705,0,821,992,975,976,992,821,0,0,705,0,0,705,0,0,705,0,0,0,0,0,0,0,0,0,0,0,
0,431,0,0,0,0,0,0,0,0,0,0,0,0,0,55,0,55,0,0,0,0,0,0,0,0,0,0,0,0,
0,458,0,0,0,0,0,0,0,0,0,0,58,0,165,0,0,0,166,0,0,0,0,0,0,0,0,0,0,0,
0,0,0,0,0,0,0,0,0,0,0,0,58,0,0,110,0,110,0,0,0,0,0,0,0,0,0,0,0,0,
0,431,0,0,0,0,0,0,0,0,0,0,0,0,0,55,0,55,0,0,648,0,648,0,0,0,648,0,648,0,
0,456,0,0,0,0,0,193,0,0,0,0,0,0,165,0,0,0,166,0,705,0,705,861,862,0,705,0,705,0,
0,456,0,0,0,0,0,0,0,0,0,0,58,0,0,110,0,110,0,0,0,0,0,0,0,0,0,0,0,0,
0,458,0,0,0,0,0,0,0,0,0,0,58,0,0,55,0,55,0,0,0,0,0,0,0,0,0,0,0,0,
0,0,0,0,0,0,0,0,0,0,0,0,0,0,165,0,0,0,166,0,0,0,0,0,0,0,0,0,0,0,
0,0,896,897,897,897,897,897,897,897,897,897,898,0,0,110,0,110,0,55,0,55,0,0,0,55,0,55,0,0,
0,0,953,954,954,954,954,954,954,954,954,954,955,0,0,0,0,0,165,0,0,0,166,0,165,0,0,0,166,0,
0,0,953,954,954,954,954,954,954,954,954,954,955,0,0,0,0,0,0,110,0,110,0,0,0,110,0,110,0,0,
0,0,953,954,954,954,954,954,954,954,954,954,955,0,0,0,0,0,0,55,0,55,0,0,0,55,0,55,0,0,
0,0,953,954,954,954,954,954,954,954,954,954,955,0,0,0,0,0,165,0,0,0,166,0,165,0,0,0,166,0,
0,0,1010,1011,1011,1011,1011,1011,1011,1011,1011,1011,1012,0,0,0,0,0,0,110,0,110,0,0,0,110,0,110,0,0,
0,0,0,0,0,0,0,0,0,0,0,0,0,0,0,0,0,0,0,0,0,0,0,0,0,0,0,0,0,0,
0,0,1042,0,0,1042,0,0,1042,0,0,2657,2688,2689,2689,2690,2657,0,0,0,0,1042,0,0,1042,0,0,1042,0,0,
0,0,0,0,0,0,0,0,0,0,0,2694,0,973,974,0,2694,0,0,0,0,0,0,0,0,0,0,0,0,0
</data>
 </layer>
 <objectgroup id="5" name="Doors">
  <object id="5" x="209.136" y="266.302" width="30.5359" height="11.3622"/>
 </objectgroup>
</map>
