<?xml version="1.0" encoding="UTF-8"?>
<map version="1.10" tiledversion="1.12.2-2-geb83ddb9" orientation="orthogonal" renderorder="right-down" width="30" height="20" tilewidth="16" tileheight="16" infinite="0" nextlayerid="6" nextobjectid="4">
 <editorsettings>
  <export target="policestation.json" format="json"/>
 </editorsettings>
 <tileset firstgid="1" source="../graphics/indoor_tileset.tsj"/>
 <tileset firstgid="487" source="../graphics/rpg_tileset.tsj"/>
 <tileset firstgid="2254" source="../graphics/city_tileset.tsj"/>
 <layer id="2" name="Floor" width="30" height="20">
  <data encoding="csv">
0,0,0,0,0,0,0,0,0,0,0,0,0,0,0,0,0,0,0,0,0,0,0,0,0,0,0,0,0,0,
0,0,0,0,0,0,0,0,0,0,0,0,0,0,0,0,0,0,0,0,0,0,0,0,0,0,0,0,0,0,
0,0,0,0,0,0,0,0,0,0,0,0,0,0,0,0,0,0,0,0,0,0,0,0,0,0,0,0,0,0,
0,1972,1916,1974,0,1972,1916,1974,0,1972,1916,1974,0,1915,1916,1916,1917,0,1915,1916,1916,1916,1916,1916,1916,1916,1916,1916,1917,0,
0,1972,1973,1974,0,1972,1973,1974,0,1972,1973,1974,0,1972,1973,1973,1974,0,1972,1973,1973,1973,1973,1973,1973,1973,1973,1973,1974,0,
0,1972,1973,1974,0,1972,1973,1974,0,1972,1973,1974,0,1972,1973,1973,1974,0,1972,1973,1973,1973,1973,1973,1973,1973,1973,1973,1974,0,
0,1972,1973,1974,0,1972,1973,1974,0,1972,1973,1974,0,1972,1973,1973,1974,0,1972,1973,1973,1973,1973,1973,1973,1973,1973,1973,1974,0,
0,1972,1973,1974,0,1972,1973,1974,0,1972,1973,1974,0,1972,1973,1973,1974,0,1972,1973,1973,1973,1973,1973,1973,1973,1973,1973,1974,0,
0,1972,1973,1973,1973,1973,1973,1973,1973,1973,1973,1974,0,2029,2030,2030,2031,0,2029,2030,2030,2030,2030,1973,1973,1973,1973,1973,1974,0,
0,1972,1973,1973,1973,1973,1973,1973,1973,1973,1973,1974,0,0,0,0,0,0,0,0,0,0,0,1972,1973,1973,1973,1973,1974,0,
0,1972,1973,1973,1973,1973,1973,1973,1973,1973,1973,1974,0,0,0,0,0,0,0,0,0,0,0,1972,1973,1973,1973,1973,1974,0,
0,1972,1973,1973,1973,1973,1973,1973,1973,1973,1973,1974,0,0,0,0,0,0,0,0,0,0,0,1972,1973,1973,1973,1973,1974,0,
0,1972,1973,1973,1973,1973,1973,1973,1973,1973,1973,1974,0,1915,1916,1916,1916,1916,1916,1916,1916,1917,0,1972,1973,1973,1973,1973,1974,0,
0,1972,1973,1973,1973,1973,1973,1973,1973,1973,1973,1974,0,1972,1973,1973,1973,1973,1973,1973,1973,1974,0,1972,1973,1973,1973,1973,1974,0,
0,1972,1973,1973,1973,1973,1973,1973,1973,1973,1973,1974,0,1972,1973,1973,1973,1973,1973,1973,1973,1974,0,1972,1973,1973,1973,1973,1974,0,
0,1972,1973,1973,1973,1973,1973,1973,1973,1973,1973,1974,0,1972,1973,1973,1973,1973,1973,1973,1973,1974,0,1972,1973,1973,1973,1973,1974,0,
0,2029,2030,2030,2030,2030,2030,2030,2030,2030,2030,2031,0,2029,1973,1973,2030,2030,2030,2030,2030,1974,0,2029,2030,2030,2030,2030,2031,0,
0,0,0,0,0,0,0,0,0,0,0,0,0,0,2029,2031,0,0,0,0,0,0,0,0,0,0,0,0,0,0,
0,0,0,0,0,0,0,0,0,0,0,0,0,0,0,0,0,0,0,0,0,0,0,0,0,0,0,0,0,0,
0,0,0,0,0,0,0,0,0,0,0,0,0,0,0,0,0,0,0,0,0,0,0,0,0,0,0,0,0,0
</data>
 </layer>
 <layer id="1" name="Walls" width="30" height="20">
  <data encoding="csv">
1201,1199,1199,1199,1261,1199,1199,1199,1261,1199,1199,1199,1261,1199,1199,1199,1199,1261,1199,1199,1199,1199,1199,1199,1199,1199,1199,1199,1199,1202,
1257,1430,1431,1431,1257,1431,1431,1431,1257,1431,1431,1431,1257,1431,1431,1431,1431,1257,1431,1431,1431,1431,1431,1431,1431,1431,1431,1431,1432,1257,
1257,1373,1374,1374,1257,1374,1374,1374,1257,1374,1374,1374,1257,1374,1374,1374,1374,1257,1374,1374,1374,1374,1374,1374,1374,1374,1374,1374,1375,1257,
1257,0,0,0,1257,0,0,0,1257,0,0,0,1257,0,0,0,0,1257,0,0,0,0,0,0,0,0,0,0,0,1257,
1257,0,0,0,1257,0,0,0,1257,0,0,0,1257,0,0,0,0,1257,6,0,0,0,0,0,0,0,0,0,0,1257,
1257,0,0,0,1312,0,0,0,1312,0,0,0,1257,0,0,851,0,1257,33,0,0,0,0,0,0,0,0,0,0,1257,
1257,0,0,0,1431,0,0,0,1431,0,0,0,1257,0,0,0,0,1257,33,0,0,0,0,0,0,0,0,0,0,1257,
1257,0,0,0,1374,0,0,0,1374,0,0,0,1257,0,0,0,0,1257,60,0,0,0,0,0,0,0,0,0,0,1257,
1257,0,0,0,0,0,0,0,0,0,0,0,1257,0,0,0,0,1257,0,0,0,0,0,0,0,0,0,0,0,1257,
1257,0,0,0,0,0,0,0,0,0,0,0,1203,1199,1199,1199,1199,1204,1199,1199,1199,1199,1202,0,0,0,0,0,0,1257,
1257,0,0,0,0,0,0,0,0,0,0,0,1257,1430,1431,1431,1431,1431,1431,1431,1431,1432,1312,0,0,0,0,0,0,1257,
1257,0,0,6,0,0,0,0,0,6,0,0,1257,1373,1374,1374,1374,1374,1374,1374,1374,1375,1431,0,0,28,30,0,0,1257,
1257,0,0,33,0,0,0,0,0,33,0,0,1257,0,0,0,0,0,0,0,0,0,1374,0,0,0,0,0,0,1257,
1257,0,0,60,0,0,0,0,0,60,0,0,1257,0,469,470,470,470,471,0,0,1973,1916,1973,0,0,0,0,0,1257,
1257,0,0,0,0,0,0,0,0,0,0,0,1257,0,0,0,0,0,0,0,0,1973,2030,1973,0,0,0,0,0,1257,
1257,0,0,0,0,0,0,0,0,0,0,0,1257,0,0,0,0,0,0,0,0,324,1255,0,0,28,30,0,0,1257,
1257,0,0,0,0,0,0,0,0,0,0,0,1257,0,0,0,0,0,402,403,403,376,1257,0,0,0,0,0,0,1257,
1258,1199,1199,1199,1199,1199,1199,1199,1199,1199,1199,1199,1204,1200,0,0,1198,1199,1199,1199,1199,1199,1204,1199,1199,1199,1199,1199,1199,1259,
2592,2593,2593,2593,2593,2593,2593,2593,2593,2593,2593,2593,2593,2593,2593,2593,2593,2593,2593,2593,2593,2593,2593,2593,2593,2593,2593,2593,2593,2594,
2555,2556,2556,2556,2556,2556,2556,2556,2556,2556,2556,2556,2556,2556,2556,2556,2556,2556,2556,2556,2556,2556,2556,2556,2556,2556,2556,2556,2556,2557
</data>
 </layer>
 <layer id="3" name="Decorations" width="30" height="20">
  <data encoding="csv">
0,0,0,0,0,0,0,0,0,0,0,0,0,0,0,0,0,0,0,0,0,0,0,0,0,0,0,0,0,0,
0,0,961,0,0,0,961,0,0,0,961,0,0,401,401,401,401,0,0,293,0,467,467,467,467,467,467,467,365,0,
0,0,0,0,0,0,0,0,0,0,0,0,0,428,428,428,428,0,480,480,480,467,467,467,467,467,467,467,467,0,
0,673,0,172,0,672,0,172,0,730,0,729,0,0,0,0,0,0,0,0,0,0,0,0,0,0,0,0,392,0,
0,0,0,0,0,0,0,0,0,0,0,0,0,0,0,0,0,0,0,0,0,0,0,0,55,0,0,0,392,0,
0,0,0,0,0,0,0,0,0,0,0,0,0,0,219,0,0,0,0,680,0,0,57,28,29,30,58,0,392,0,
0,693,693,693,0,693,693,693,0,693,693,693,0,0,0,0,0,0,0,680,0,0,0,0,56,0,0,0,392,0,
0,693,693,693,0,693,693,693,0,693,693,693,0,0,0,0,0,0,0,0,0,0,0,0,0,0,0,0,392,0,
0,0,0,0,0,0,0,0,0,0,0,0,0,0,0,0,0,0,17,0,0,0,0,0,0,0,0,0,392,0,
0,0,0,0,0,0,0,0,0,0,0,0,0,0,0,0,0,0,0,0,0,0,0,0,0,0,0,0,392,0,
0,0,0,0,0,0,0,0,0,0,0,0,0,0,1167,1167,293,0,0,0,399,400,0,0,0,55,0,0,392,0,
0,0,2791,0,2788,0,0,0,2791,0,2788,0,0,0,0,0,0,0,867,868,0,0,0,0,0,0,0,0,392,0,
0,0,2828,0,2825,0,0,0,2828,0,2825,0,0,0,0,0,55,0,0,0,0,0,0,0,0,0,83,0,419,0,
0,0,2865,0,2862,0,0,0,2865,0,2862,0,0,0,0,0,0,0,0,0,0,0,0,0,0,0,0,0,419,0,
0,0,0,0,0,0,0,0,0,0,0,0,0,0,0,0,0,0,0,0,0,0,0,0,0,55,0,0,0,0,
0,0,0,0,0,0,0,0,0,0,0,0,0,0,0,0,0,0,0,0,0,0,0,0,0,0,0,0,0,0,
0,0,0,0,0,0,0,0,0,0,0,0,0,0,0,0,0,17,0,0,0,0,0,17,0,0,83,0,17,0,
0,0,0,0,0,0,0,0,0,0,0,0,0,0,0,0,0,0,0,0,0,0,0,0,0,0,0,0,0,0,
0,0,0,0,0,0,0,0,0,0,0,0,0,0,0,0,0,0,0,0,0,0,0,0,0,0,0,0,0,0,
0,0,0,0,0,0,0,0,0,0,0,0,0,0,867,868,0,0,0,0,0,0,0,0,0,0,0,0,0,0
</data>
 </layer>
 <objectgroup id="5" name="Doors">
  <object id="1" name="exit" x="224.41" y="273.988" width="30.5674" height="12.6743"/>
  <object id="3" name="archive" x="354.88" y="66.7263" width="73.4362" height="41.7505"/>
 </objectgroup>
 <layer id="4" name="Decorations2" width="30" height="20">
  <data encoding="csv">
0,0,0,0,0,0,0,0,0,0,0,0,0,0,0,0,0,0,0,0,0,0,0,0,0,0,0,0,0,0,
0,0,0,0,0,0,0,0,0,0,0,0,0,0,0,0,0,0,0,0,0,0,0,0,0,0,0,0,0,0,
0,0,0,0,0,0,0,0,0,0,0,0,0,0,0,0,0,0,0,0,0,0,0,0,0,0,0,0,392,0,
0,0,0,0,0,0,0,0,0,0,0,0,0,0,0,0,0,0,0,0,0,0,0,0,0,0,0,0,0,0,
0,0,0,0,0,0,0,0,0,0,0,0,0,0,0,0,0,0,0,0,0,0,0,0,0,0,0,0,0,0,
0,0,0,0,0,0,0,0,0,0,0,0,0,0,0,0,0,0,0,0,0,0,0,0,0,0,0,0,0,0,
0,0,0,0,0,0,0,0,0,0,0,0,0,0,0,0,0,0,0,0,0,0,0,0,0,0,0,0,0,0,
0,0,0,0,0,0,0,0,0,0,0,0,0,0,0,0,0,0,0,0,0,0,0,0,0,0,0,0,0,0,
0,0,0,0,0,0,0,0,0,0,0,0,0,0,0,0,0,0,0,0,0,0,0,0,0,0,0,0,0,0,
0,0,0,0,0,0,0,0,0,0,0,0,0,0,0,0,0,0,0,0,0,0,0,0,0,0,0,0,0,0,
0,0,0,0,0,0,0,0,0,0,0,0,0,0,0,0,0,0,0,0,0,0,0,0,0,0,0,0,0,0,
0,0,0,0,0,0,0,0,0,0,0,0,0,0,0,0,0,0,0,0,0,0,0,0,0,0,0,0,0,0,
0,0,0,0,0,0,0,0,0,0,0,0,0,0,0,0,0,0,0,0,0,0,0,0,0,0,0,0,0,0,
0,0,0,0,0,0,0,0,0,0,0,0,0,0,0,0,0,0,0,0,0,0,0,0,0,0,0,0,0,0,
0,0,0,0,0,0,0,0,0,0,0,0,0,0,0,0,0,0,0,0,0,0,0,0,0,0,0,0,0,0,
0,0,0,0,0,0,0,0,0,0,0,0,0,0,0,0,0,0,0,0,0,0,0,0,0,0,0,0,0,0,
0,0,0,0,0,0,0,0,0,0,0,0,0,0,0,0,0,0,0,0,0,0,0,0,0,0,0,0,0,0,
0,0,0,0,0,0,0,0,0,0,0,0,0,0,0,0,0,0,0,0,0,0,0,0,0,0,0,0,0,0,
0,0,0,0,0,0,0,0,0,0,0,0,0,0,0,0,0,0,0,0,0,0,0,0,0,0,0,0,0,0,
0,0,0,0,0,0,0,0,0,0,0,0,0,0,0,0,0,0,0,0,0,0,0,0,0,0,0,0,0,0
</data>
 </layer>
</map>
